build/img/svg/icons-news24.svg

<svg width="30" height="30" viewBox="0 0 30 30" fill="none" xmlns="http://www.w3.org/2000/svg">
<circle cx="15" cy="15" r="9.5" stroke="#141E26"/>
<rect x="12" y="2" width="6" height="1" fill="#141E26"/>
<path d="M9.74607 17.019L11.9511 15.12C12.1551 14.94 12.3291 14.784 12.4731 14.652C12.6171 14.514 12.7341 14.388 12.8241 14.274C12.9141 14.16 12.9771 14.049 13.0131 13.941C13.0551 13.833 13.0761 13.716 13.0761 13.59C13.0761 13.332 13.0041 13.125 12.8601 12.969C12.7161 12.807 12.5031 12.726 12.2211 12.726C11.8971 12.726 11.6421 12.816 11.4561 12.996C11.2761 13.17 11.1861 13.473 11.1861 13.905H9.83607C9.83607 13.191 10.0371 12.627 10.4391 12.213C10.8471 11.799 11.4411 11.592 12.2211 11.592C12.5871 11.592 12.9051 11.643 13.1751 11.745C13.4511 11.841 13.6821 11.979 13.8681 12.159C14.0541 12.333 14.1921 12.543 14.2821 12.789C14.3781 13.035 14.4261 13.302 14.4261 13.59C14.4261 13.806 14.3871 14.013 14.3091 14.211C14.2311 14.403 14.1231 14.589 13.9851 14.769C13.8531 14.949 13.6971 15.126 13.5171 15.3C13.3371 15.468 13.1451 15.636 12.9411 15.804L11.6451 16.884H14.5161V18H9.74607V17.019ZM18.0226 16.668H15.0526V15.732L18.0226 11.7H19.3726V15.552H20.0926V16.668H19.3726V18H18.0226V16.668ZM18.0226 15.552V13.203L16.3126 15.552H18.0226Z" fill="#141E26"/>
</svg>

<svg width="30" height="30" fill="none" xmlns="http://www.w3.org/2000/svg"><circle cx="15" cy="15" r="9.5" stroke="#141E26"/><path fill="#141E26" d="M12 2h6v1h-6zM9.746 17.019l2.205-1.899c.204-.18.378-.336.522-.468.144-.138.261-.264.351-.378a1.115 1.115 0 00.252-.684c0-.258-.072-.465-.216-.621-.144-.162-.357-.243-.639-.243-.324 0-.579.09-.765.27-.18.174-.27.477-.27.909h-1.35c0-.714.201-1.278.603-1.692.408-.414 1.002-.621 1.782-.621.366 0 .684.051.954.153.276.096.507.234.693.414.186.174.324.384.414.63.096.246.144.513.144.801 0 .216-.039.423-.117.621a2.406 2.406 0 01-.324.558c-.132.18-.288.357-.468.531-.18.168-.372.336-.576.504l-1.296 1.08h2.871V18h-4.77v-.981zm8.277-.351h-2.97v-.936l2.97-4.032h1.35v3.852h.72v1.116h-.72V18h-1.35v-1.332zm0-1.116v-2.349l-1.71 2.349h1.71z"/></svg>
